X:1
T:The Douglas Tragedy
M:4/4
L:1/8
K:G
 D2| G3 G B3 A| AG GFF-E EE| A3 Bd-c BA| G2- F2 z2| DD| G2 ABc-B GE|\
 D3/2- E/2 DC B,- D2 D| EF GBB-A GF| G4 z2||
